static/logos/fathom-wordmark-color.svg

<svg width="100" height="23" viewBox="0 0 100 23" fill="none" xmlns="http://www.w3.org/2000/svg">
<g clip-path="url(#clip0_1_2796)">
<path d="M76.2191 8.54419C73.1548 8.54419 70.7344 11.0934 70.7344 14.2091C70.7344 17.3248 73.1548 19.874 76.2191 19.874C79.2834 19.874 81.7038 17.3248 81.7038 14.2091C81.7038 11.0934 79.2834 8.54419 76.2191 8.54419ZM76.2191 17.0931C74.7512 17.0931 73.4635 15.8056 73.4635 14.2349C73.4635 12.6641 74.7252 11.3766 76.2191 11.3766C77.7124 11.3766 78.9742 12.6641 78.9742 14.2349C78.9742 15.8056 77.6864 17.0931 76.2191 17.0931Z" fill="black"/>
<path d="M48.2529 8.72439L48.0212 9.96041C48.0212 9.96041 47.1972 8.54419 44.9827 8.54419C42.1502 8.54419 39.7812 10.5527 39.7812 14.1318C39.7812 17.5823 42.3305 19.8998 44.751 19.8998C47.017 19.8998 48.0212 17.9943 48.0212 17.9943L48.2529 19.6165H50.7506V8.72439H48.2529ZM45.2659 17.0931C43.7467 17.0931 42.5107 15.8056 42.5107 14.2349C42.5107 12.6641 43.7467 11.3766 45.2659 11.3766C46.7852 11.3766 48.0212 12.6641 48.0212 14.2349C48.0212 15.8056 46.7852 17.0931 45.2659 17.0931Z" fill="black"/>
<path d="M55.3879 16.1145V11.4796H58.143V8.72436H55.3879V5.99487L52.6328 6.74161C52.6328 6.74161 52.6328 15.6253 52.6328 16.1403C52.6328 16.99 52.6328 19.9255 55.9542 19.9255C57.4476 19.9255 58.143 19.462 58.143 19.462V17.1188C58.143 17.093 55.3879 18.2002 55.3879 16.1145Z" fill="black"/>
<path d="M95.8397 8.54419C93.3937 8.54419 92.3892 10.3466 92.3892 10.3466C92.3892 10.3466 91.6943 8.54419 89.2738 8.54419C87.5483 8.54419 86.3126 9.3424 85.8233 9.96041L85.5917 8.72439H83.0938V19.7195H85.8233V14.2091C85.8233 12.7929 86.3897 11.3766 87.9861 11.3766C89.3769 11.3766 89.9432 12.2006 89.9432 13.5654V19.7195H92.6983V13.6426C92.6983 12.8959 93.1106 11.4024 94.8101 11.4024C96.5096 11.4024 96.7927 12.6384 96.7927 13.5396V19.7195H99.5478V12.6641C99.5478 11.5827 99.1101 8.54419 95.8397 8.54419Z" fill="black"/>
<path d="M30.1797 3.23962V19.7195H33.1924V12.8443H38.4196V10.1148H33.1924V5.99487H41.1491V3.23962H30.1797Z" fill="black"/>
<path d="M65.6397 8.54406C63.8627 8.54406 62.9101 9.52258 62.5754 9.96033V3.23962L59.8203 3.98637V19.7195H62.5754V13.4365C62.5754 12.6898 62.8841 11.4023 64.5581 11.4023C66.206 11.4023 66.6183 12.8185 66.6183 13.7713V19.7195H69.3734V13.282C69.3734 10.7071 67.8285 8.54406 65.6397 8.54406Z" fill="black"/>
<path d="M5.61224 16.8368H0V22.449H5.61224V16.8368Z" fill="#4ABEA7"/>
<path d="M10.7143 11.2245V5.6123H0V11.2245H5.61224V16.8368H21.9388V11.2245H10.7143Z" fill="#4ABEA7"/>
<path d="M21.9354 0H10.7109V5.61224H21.9354V0Z" fill="#4ABEA7"/>
</g>
<defs>
<clipPath id="clip0_1_2796">
<rect width="100" height="22.449" fill="white"/>
</clipPath>
</defs>
</svg>

<svg xmlns="http://www.w3.org/2000/svg" width="278.261" height="64" fill="none" viewBox="0 0 100 23"><g clip-path="url(#a)"><path fill="#000" d="M76.22 8.544c-3.065 0-5.486 2.55-5.486 5.665 0 3.116 2.42 5.665 5.485 5.665 3.064 0 5.485-2.55 5.485-5.665 0-3.116-2.42-5.665-5.485-5.665Zm0 8.55c-1.469 0-2.757-1.288-2.757-2.86 0-1.57 1.262-2.857 2.756-2.857 1.493 0 2.755 1.287 2.755 2.858 0 1.57-1.288 2.858-2.755 2.858ZM48.253 8.724 48.02 9.96s-.824-1.416-3.038-1.416c-2.833 0-5.202 2.009-5.202 5.588 0 3.45 2.55 5.768 4.97 5.768 2.266 0 3.27-1.906 3.27-1.906l.232 1.622h2.498V8.724h-2.498Zm-2.987 8.37c-1.52 0-2.755-1.288-2.755-2.86 0-1.57 1.236-2.857 2.755-2.857 1.52 0 2.755 1.287 2.755 2.858 0 1.57-1.236 2.858-2.755 2.858ZM55.388 16.114V11.48h2.755V8.724h-2.755v-2.73l-2.755.748v9.398c0 .85 0 3.785 3.321 3.785 1.494 0 2.189-.463 2.189-.463v-2.343c0-.026-2.755 1.081-2.755-1.005ZM95.84 8.544c-2.446 0-3.45 1.803-3.45 1.803s-.696-1.803-3.116-1.803c-1.726 0-2.961.798-3.45 1.416l-.232-1.236h-2.498V19.72h2.73v-5.51c0-1.416.566-2.832 2.162-2.832 1.39 0 1.957.824 1.957 2.188v6.155h2.755v-6.077c0-.747.413-2.24 2.112-2.24 1.7 0 1.983 1.235 1.983 2.137v6.18h2.755v-7.056c0-1.081-.438-4.12-3.708-4.12ZM30.18 3.24v16.48h3.012v-6.876h5.228v-2.73h-5.228v-4.12h7.957V3.24H30.18ZM65.64 8.544c-1.777 0-2.73.979-3.065 1.416V3.24l-2.755.746V19.72h2.755v-6.283c0-.746.31-2.034 1.983-2.034 1.648 0 2.06 1.417 2.06 2.37v5.947h2.755v-6.437c0-2.575-1.544-4.738-3.733-4.738Z"/><path fill="#4ABEA7" d="M5.612 16.837H0v5.612h5.612v-5.612Z"/><path fill="#4ABEA7" d="M10.714 11.225V5.612H0v5.613h5.612v5.612H21.94v-5.612H10.714ZM21.935 0H10.711v5.612h11.224V0Z"/></g><defs><clipPath id="a"><path fill="#fff" d="M0 0h100v22.449H0z"/></clipPath></defs></svg>
